X: 16048
T: Green Cottage, The
R: polka
M: 2/4
K: Gmajor
|:de/d/ cA|BG G/F/G/B/|AD D/E/F/G/|AG G/F/G/B/|
de/d/ cA|BG G/F/G/B/|AD D/E/F/G/|AG G>B:|
|:GB/d/ gg|fe e2|FA/d/ ff|ed B2|
GB/d/ gg|fe e2|fe/f/ af|ag g2:|

